X: 071341
T: Girls of the County Mayo
T: Paddy's Gone to France
S: "Ceol Rince na hEireann" 1/80
Z: B.Black
L: 1/8
M: 4/4
R: reel
K: G
eB B2 eBdB|A2 GA Bd d2|eB B2 eBdB|A2 GA BG G2|
eB B2 eBdB|A2 GA Bd d2|eB B2 eBdB|A2 GA BG G2||
gbag egde|g2 ag ea a2|gbag egdB|ABGA BG G2|
gbag egde|g2 ag ea a2|bgag egdB|ABGA BG G2||
